X: 35725
T: Saint Patrick's Day
R: jig
M: 6/8
K: Cmajor
G|cdc cde|gag gec|efe ecG|ABA A2G|
cdc cde|gag gec|efe ecA|A3c2:|
|:d|gab c'2a|b2g agf|gab c'2a|b2g a3|
gab c'ba|bag abc'|cdc cde|gag gec|efe ecG|
ABA A2G|cdc cde|gag gec|efe ecA|A3c2:|

